X: 9
T:Boys of Bluehill
R:hornpipe
Z:Often follo
M:4/4
L:1/8
K:D
FA|BAFA D2FA|BA (3Bcd e2de|faaf egfe|dfed B2dA|
BAFA DAFA|BA (3Bcd e2de|faaf egfe|d2d2 d2:|
fg|afdf a2gf|efga b2ag|faaf egfe|dfed B2dA|
BAFA D2FA|BA (3Bcd e2de|faaf egfe|d2d2 d2:|
